2019/02/basketball-predictions/assets/dartmouth-w.svg

<svg viewBox="0 0 133.96 78.79" xmlns="http://www.w3.org/2000/svg"><g fill="#a83131"><path d="m38.59 68.77v-19.28h2.41v-23.49h-2.42v-.24q0-9.41 0-18.81c0-.2.07-.25.26-.25h38.84a.51.51 0 0 1 .37.15l9 8.07a.89.89 0 0 1 .33.73q0 22.19 0 44.36a.62.62 0 0 1 -.22.51l-9.16 8.11a.55.55 0 0 1 -.34.13h-39.07zm1.24-1.24h37.3a.65.65 0 0 0 .14 0 .74.74 0 0 0 .26-.1l3.06-2.74c1.79-1.6 3.58-3.22 5.38-4.82a.49.49 0 0 0 .18-.4v-43.47a.47.47 0 0 0 -.19-.4l-4.62-4.14-3.74-3.41a.51.51 0 0 0 -.38-.16h-37.39v16.83h2.42v26h-2.42z"/><path d="m43.22 64.15v-10h2.43v-32.82h-2.43v-10h32.72a.38.38 0 0 1 .26.08l6.41 5.73a.43.43 0 0 1 .15.36v40.5a.42.42 0 0 1 -.15.35l-6.4 5.73a.49.49 0 0 1 -.21.08.47.47 0 0 1 -.17 0h-32.61zm13.17-10.05h14.12a.52.52 0 0 0 .39-.1c.3-.28.61-.57.94-.83a.52.52 0 0 0 .21-.46q0-9.8 0-19.6v-10.41a.37.37 0 0 0 -.13-.31c-.36-.31-.7-.64-1.06-.94a.59.59 0 0 0 -.33-.13h-14.14z"/><path d="m59.78 24.73h8.85v26h-8.85zm1.22 1.27v23.47h6.4v-23.47z"/></g></svg>

<svg id="Layer_1" data-name="Layer 1" xmlns="http://www.w3.org/2000/svg" viewBox="0 0 133.96 78.79"><defs><style>.cls-1{fill:#a83131;}</style></defs><title>dartmouth</title><path class="cls-1" d="M38.59,68.77V49.49H41V26H38.58v-.24q0-9.41,0-18.81c0-.2.07-.25.26-.25H77.68a.51.51,0,0,1,.37.15l9,8.07a.89.89,0,0,1,.33.73q0,22.19,0,44.36a.62.62,0,0,1-.22.51L78,68.63a.55.55,0,0,1-.34.13H38.59Zm1.24-1.24h37.3a.65.65,0,0,0,.14,0,.74.74,0,0,0,.26-.1l3.06-2.74c1.79-1.6,3.58-3.22,5.38-4.82a.49.49,0,0,0,.18-.4V16a.47.47,0,0,0-.19-.4l-4.62-4.14L77.6,8.05a.51.51,0,0,0-.38-.16H39.83V24.72h2.42v26H39.83Z"/><path class="cls-1" d="M43.22,64.15v-10h2.43V21.33H43.22v-10H75.94a.38.38,0,0,1,.26.08l6.41,5.73a.43.43,0,0,1,.15.36V58a.42.42,0,0,1-.15.35l-6.4,5.73a.49.49,0,0,1-.21.08.47.47,0,0,1-.17,0H43.22ZM56.39,54.1H70.51A.52.52,0,0,0,70.9,54c.3-.28.61-.57.94-.83a.52.52,0,0,0,.21-.46q0-9.8,0-19.6V22.7a.37.37,0,0,0-.13-.31c-.36-.31-.7-.64-1.06-.94a.59.59,0,0,0-.33-.13H56.39Z"/><path class="cls-1" d="M59.78,24.73h8.85v26H59.78ZM61,26V49.47H67.4V26Z"/></svg>
